src/mimetypes/mimetypes-x-content-list-files.svg

<?xml version="1.0" encoding="utf-8"?>
<!-- Generator: Adobe Illustrator 19.1.1, SVG Export Plug-In . SVG Version: 6.00 Build 0)  -->
<svg version="1.1" id="Ebene_1" xmlns="http://www.w3.org/2000/svg" xmlns:xlink="http://www.w3.org/1999/xlink" x="0px" y="0px"
	 viewBox="0 0 16 16" enable-background="new 0 0 16 16" xml:space="preserve">
<g>
	<polygon fill="#FFFFFF" points="8,9.75 8,15 1,15 1,1 15,1 15,9.75 	"/>
	<path fill="#999999" d="M1,1v1v12v1h1h6v-1H2V2h12v7.75h1V1H2H1z"/>
	<rect x="3" y="3" fill="#666666" width="10" height="2"/>
	<rect x="3" y="6" fill="#FF8700" width="1" height="1"/>
	<rect x="3" y="8" fill="#FF8700" width="1" height="1"/>
	<rect x="3" y="10" fill="#FF8700" width="1" height="1"/>
	<rect x="3" y="12" fill="#FF8700" width="1" height="1"/>
	<rect x="5" y="6" fill="#B9B9B9" width="8" height="1"/>
	<rect x="5" y="8" fill="#B9B9B9" width="8" height="1"/>
	<rect x="5" y="10" fill="#B9B9B9" width="3" height="1"/>
	<rect x="5" y="12" fill="#B9B9B9" width="3" height="1"/>
</g>
<g>
	<path fill="#FFC857" d="M16,11.625V16H9v-3.938v-0.438V10.75h3.063l0.582,0.875H16z"/>
	<path fill="#E8A33D" d="M16,12.062h-3.356l-0.582,0.875H9v-0.875v-0.438h7V12.062z"/>
</g>
</svg>

<?xml version="1.0" encoding="UTF-8" standalone="no"?>
<!-- Created with Inkscape (http://www.inkscape.org/) -->

<svg
   xmlns:dc="http://purl.org/dc/elements/1.1/"
   xmlns:cc="http://creativecommons.org/ns#"
   xmlns:rdf="http://www.w3.org/1999/02/22-rdf-syntax-ns#"
   xmlns:svg="http://www.w3.org/2000/svg"
   xmlns="http://www.w3.org/2000/svg"
   xmlns:sodipodi="http://sodipodi.sourceforge.net/DTD/sodipodi-0.dtd"
   xmlns:inkscape="http://www.inkscape.org/namespaces/inkscape"
   width="16"
   height="16"
   viewBox="0 0 16 16"
   id="svg2"
   version="1.1"
   inkscape:version="0.91 r13725"
   sodipodi:docname="mimetypes-x-content-list-files.svg">
  <defs
     id="defs4" />
  <sodipodi:namedview
     id="base"
     pagecolor="#ffffff"
     bordercolor="#666666"
     borderopacity="1.0"
     inkscape:pageopacity="0.0"
     inkscape:pageshadow="2"
     inkscape:zoom="1"
     inkscape:cx="8.1240395"
     inkscape:cy="5.2664389"
     inkscape:document-units="px"
     inkscape:current-layer="g4137"
     showgrid="false"
     units="px"
     showguides="false"
     inkscape:window-width="1920"
     inkscape:window-height="1027"
     inkscape:window-x="-8"
     inkscape:window-y="-8"
     inkscape:window-maximized="1" />
  <metadata
     id="metadata7">
    <rdf:RDF>
      <cc:Work
         rdf:about="">
        <dc:format>image/svg+xml</dc:format>
        <dc:type
           rdf:resource="http://purl.org/dc/dcmitype/StillImage" />
        <dc:title></dc:title>
      </cc:Work>
    </rdf:RDF>
  </metadata>
  <g
     inkscape:label="Ebene 1"
     inkscape:groupmode="layer"
     id="layer1"
     transform="translate(0,-1036.3622)">
    <g
       id="g4137"
       transform="matrix(1.0045597,0,0,1.1481974,-1.0120021,-153.5926)">
      <path
         style="opacity:1;fill:#ffffff;fill-opacity:1;stroke:none;stroke-width:1;stroke-linecap:square;stroke-linejoin:miter;stroke-miterlimit:4;stroke-dasharray:none;stroke-dashoffset:0;stroke-opacity:1"
         d="M 1 1 L 1 15 L 8 15 L 8 9.75 L 15 9.75 L 15 1 L 1 1 z "
         transform="matrix(0.995461,0,0,0.87093038,1.0074086,1036.3678)"
         id="rect4164" />
      <g
         transform="matrix(0,0.54433149,-0.62216312,0,4.5616247,1065.2176)"
         id="g4198-21"
         style="stroke:#000000;stroke-width:3.20000005;stroke-miterlimit:2.5;stroke-dasharray:none;stroke-opacity:1" />
      <g
         transform="matrix(0,0.54433149,-0.62216312,0,4.5616245,1065.2176)"
         id="g4198-3-0"
         style="stroke:#000000;stroke-width:3.20000005;stroke-miterlimit:4;stroke-dasharray:none;stroke-opacity:0.68488746" />
      <g
         transform="matrix(0,0.54433149,-0.62216312,0,4.5616247,1065.2176)"
         id="g4198-2-7"
         style="stroke:#000000;stroke-width:3.20000005;stroke-miterlimit:2.5;stroke-dasharray:none;stroke-opacity:1" />
      <g
         transform="matrix(0,-0.54433149,0.62216312,0,12.649752,1021.4174)"
         id="g4198-3-6-3-0" />
      <path
         style="opacity:1;fill:#b9b9b9;fill-opacity:1;stroke:none;stroke-width:1;stroke-linecap:square;stroke-linejoin:miter;stroke-miterlimit:4;stroke-dasharray:none;stroke-dashoffset:0;stroke-opacity:1"
         d="M 1 1 L 1 2 L 1 14 L 1 15 L 2 15 L 8 15 L 8 14 L 2 14 L 2 2 L 14 2 L 14 9.75 L 15 9.75 L 15 1 L 2 1 L 1 1 z "
         transform="matrix(0.995461,0,0,0.87093038,1.0074086,1036.3678)"
         id="rect4341" />
      <g
         id="g4296"
         transform="translate(21.900141,0.70762752)">
        <rect
           id="rect4248"
           height="1.7418607"
           width="9.9546099"
           y="1038.2729"
           x="-17.906349"
           style="fill:#8c8c8c" />
        <rect
           id="rect4250"
           height="0.87093037"
           width="0.99546099"
           y="1040.8857"
           x="-17.906349"
           style="fill:#ff8700" />
        <rect
           id="rect4252"
           height="0.87093037"
           width="0.99546099"
           y="1042.6277"
           x="-17.906349"
           style="fill:#ff8700" />
        <rect
           id="rect4254"
           height="0.87093037"
           width="0.99546099"
           y="1044.3695"
           x="-17.906349"
           style="fill:#ff8700" />
        <rect
           id="rect4256"
           height="0.87093037"
           width="0.99546099"
           y="1046.1113"
           x="-17.906349"
           style="fill:#ff8700" />
        <rect
           id="rect4258"
           height="0.87093037"
           width="7.9636879"
           y="1040.8857"
           x="-15.915428"
           style="fill:#b9b9b9;fill-opacity:1" />
        <rect
           id="rect4260"
           height="0.87093037"
           width="7.9636879"
           y="1042.6277"
           x="-15.915428"
           style="fill:#b9b9b9;fill-opacity:1" />
        <rect
           id="rect4262"
           height="0.87093037"
           width="2.986383"
           y="1044.3695"
           x="-15.915428"
           style="fill:#b9b9b9;fill-opacity:1" />
        <rect
           id="rect4264"
           height="0.87093037"
           width="2.986383"
           y="1046.1113"
           x="-15.915428"
           style="fill:#b9b9b9;fill-opacity:1" />
      </g>
      <g
         id="apps-filetree-folder-default"
         transform="matrix(0.43551419,0,0,0.38103204,9.9665575,1044.9682)">
        <path
           id="path4153"
           d="M 16,4 16,14 0,14 0,5 0,4 0,2 7,2 8.33,4 16,4 Z"
           inkscape:connector-curvature="0"
           style="fill:#ffc857" />
        <path
           id="path4155"
           d="M 16,5 8.33,5 7,7 0,7 0,5 0,4 16,4 16,5 Z"
           inkscape:connector-curvature="0"
           style="fill:#e8a33d" />
      </g>
    </g>
  </g>
</svg>
